X: 2
T: The Waves Of Rush
R: reel
M: 4/4
L: 1/8
K: Dmin
e|efed efa2-|afec deAe|efed efae|fece d3:||:A|cdeA ~A2ae|fedf ecdA|cdeA ~A2ae|fece d3:||:A|FGAD DdAD|BDAd BGAD|FGAD dDAD|GADC D3:|e|fAeA fAeA|fAea fdeA|fAAf eAAe|fece d3e|fAeA fAeA|fAea fdeA|fA~A2 eA~A2|fece d3||


Tune 2531	Setting 26566

